X:19
T:Ear Material
R:jig
C:Paul S. Cranford
O:Cape Breton Island
S:http://www.cranfordpub.com
D:currently unrecorded
B:currently unpublished in book form
Z:psc, (re-formatted,updated 9/17/04)
N:
H:                                                        copyrights Cranford Publications, SOCAN
L:1/8
Q:300
M:6/8
K:Amix
Ace ~a3|Ace ~g3|eag edB|dBG AGE|
Ace ~a3|Ace ~g3|eag edB|dBG A3:|
|:aAg edB|ege dBG|aAg edB|dBG A2 e|
aAg edB|ege dBG|Aag edB|dBG A3:|
